material/.icons/material/emoticon-lol.svg

<svg xmlns="http://www.w3.org/2000/svg" viewBox="0 0 24 24"><path d="M15.07 8.93v-4a4.06 4.06 0 01.66-2.21 10 10 0 00-13 13 4.06 4.06 0 012.21-.66h4v4a4.06 4.06 0 01-.66 2.21 10 10 0 0013-13 4.06 4.06 0 01-2.21.66M11 6h1.5v1.5H14V9h-3m-3.5 5v-1.5H6V11h3v3m6.89 1.9A5.5 5.5 0 019.8 17L17 9.8a5.5 5.5 0 01-1.11 6.09m-11 5.19a2 2 0 01-2-2 2 2 0 012-2h2v2a2 2 0 01-1.96 1.99M19.07 2.93a2 2 0 012 2 2 2 0 01-2 2h-2v-2a2 2 0 012-2z"/></svg>

<?xml version="1.0" encoding="UTF-8"?><!DOCTYPE svg PUBLIC "-//W3C//DTD SVG 1.1//EN" "http://www.w3.org/Graphics/SVG/1.1/DTD/svg11.dtd"><svg xmlns="http://www.w3.org/2000/svg" xmlns:xlink="http://www.w3.org/1999/xlink" version="1.1" id="mdi-emoticon-lol" width="24" height="24" viewBox="0 0 24 24"><path d="M15.07 8.93V4.93A4.06 4.06 0 0 1 15.73 2.72A10 10 0 0 0 2.73 15.72A4.06 4.06 0 0 1 4.94 15.06H8.94V19.06A4.06 4.06 0 0 1 8.28 21.27A10 10 0 0 0 21.28 8.27A4.06 4.06 0 0 1 19.07 8.93M11 6H12.5V7.5H14V9H11M7.5 14V12.5H6V11H9V14M15.89 15.9A5.5 5.5 0 0 1 9.8 17L17 9.8A5.5 5.5 0 0 1 15.89 15.89M4.89 21.08A2 2 0 0 1 2.89 19.08A2 2 0 0 1 4.89 17.08H6.89V19.08A2 2 0 0 1 4.93 21.07M19.07 2.93A2 2 0 0 1 21.07 4.93A2 2 0 0 1 19.07 6.93H17.07V4.93A2 2 0 0 1 19.07 2.93Z" /></svg>
